packages/icons/svg/24/Info.svg

<svg width="24" height="24" viewBox="0 0 24 24" fill="none" xmlns="http://www.w3.org/2000/svg">
<path fill-rule="evenodd" clip-rule="evenodd" d="M12 2C6.48 2 2 6.48 2 12C2 17.52 6.48 22 12 22C17.52 22 22 17.52 22 12C22 6.48 17.52 2 12 2ZM9.5 11C9.5 10.4477 9.94772 10 10.5 10H12C12.5523 10 13 10.4477 13 11V16H14C14.5523 16 15 16.4477 15 17C15 17.5523 14.5523 18 14 18H10C9.44772 18 9 17.5523 9 17C9 16.4477 9.44772 16 10 16H11V12H10.5C9.94772 12 9.5 11.5523 9.5 11ZM12 5C11.1716 5 10.5 5.67157 10.5 6.5C10.5 7.32843 11.1716 8 12 8C12.8284 8 13.5 7.32843 13.5 6.5C13.5 5.67157 12.8284 5 12 5Z" fill="#858585"/>
</svg>

<svg width="24" height="24" fill="none" xmlns="http://www.w3.org/2000/svg" viewBox="0 0 24 24"><path fill-rule="evenodd" clip-rule="evenodd" d="M12 2C6.48 2 2 6.48 2 12s4.48 10 10 10 10-4.48 10-10S17.52 2 12 2zm-2.5 9a1 1 0 011-1H12a1 1 0 011 1v5h1a1 1 0 110 2h-4a1 1 0 110-2h1v-4h-.5a1 1 0 01-1-1zM12 5a1.5 1.5 0 100 3 1.5 1.5 0 000-3z" fill="currentColor"></path></svg>
